X: 269
T: Gua yiegui
L: 1/16
M: 2/4
K: D
A2 d2 d2 d F [I:setbarnb 1]| 
A2 B A F2 E2 | 
d2> e2 a b a f | 
e6f e | 
d2> e2 a2 f e | 
d2 e d B2 A2 | 
A2> B2 d2 e d | 
A8 |]

@@@ Tune index: 9143
